src/svg/blog.svg

<!--?xml version="1.0" encoding="utf-8"?-->
<!-- Generator: Adobe Illustrator 15.1.0, SVG Export Plug-In . SVG Version: 6.00 Build 0)  -->

<svg version="1.1" id="_x32_" xmlns="http://www.w3.org/2000/svg" xmlns:xlink="http://www.w3.org/1999/xlink" x="0px" y="0px" width="512px" height="512px" viewBox="0 0 512 512" style="width: 256px; height: 256px; opacity: 1;" xml:space="preserve">
<style type="text/css">

	.st0{fill:#4B4B4B;}

</style>
<g>
	<path class="st0" d="M384.164,290.844c9.641-13.688,12.75-30.953,8.469-47.141l-43.734-135.516H163.117l-43.75,135.516
		c-4.281,16.188-1.172,33.453,8.469,47.141l104.609,148.344v23.688c-6.359,5.031-10.422,12.813-10.422,21.563
		c0,15.219,12.328,27.563,27.563,27.563v-48.844v-6.281V264.266c-10.375-2.828-18-12.297-18-23.563
		c0-13.484,10.922-24.422,24.422-24.422c13.484,0,24.422,10.938,24.422,24.422c0,11.266-7.641,20.734-18,23.547v192.625v6.281V512
		c15.219,0,27.563-12.344,27.563-27.563c0-8.75-4.078-16.531-10.438-21.563v-23.688L384.164,290.844z" style="fill: rgb(75, 75, 75);"></path>
	<rect x="157.086" class="st0" width="197.844" height="88.047" style="fill: rgb(75, 75, 75);"></rect>
</g>
</svg>

<?xml version="1.0" encoding="UTF-8" standalone="no"?>
<!DOCTYPE svg PUBLIC "-//W3C//DTD SVG 1.1//EN" "http://www.w3.org/Graphics/SVG/1.1/DTD/svg11.dtd">
<svg width="100%" height="100%" viewBox="0 0 512 512" version="1.1" xmlns="http://www.w3.org/2000/svg" xmlns:xlink="http://www.w3.org/1999/xlink" xml:space="preserve" xmlns:serif="http://www.serif.com/" style="fill-rule:evenodd;clip-rule:evenodd;stroke-linejoin:round;stroke-miterlimit:1.41421;">
    <g>
        <path d="M384.164,290.844C393.805,277.156 396.914,259.891 392.633,243.703L348.899,108.187L163.117,108.187L119.367,243.703C115.086,259.891 118.195,277.156 127.836,290.844L232.445,439.188L232.445,462.876C226.086,467.907 222.023,475.689 222.023,484.439C222.023,499.658 234.351,512.002 249.586,512.002L249.586,463.158L249.586,456.877L249.586,264.266C239.211,261.438 231.586,251.969 231.586,240.703C231.586,227.219 242.508,216.281 256.008,216.281C269.492,216.281 280.43,227.219 280.43,240.703C280.43,251.969 272.789,261.437 262.43,264.25L262.43,512C277.649,512 289.993,499.656 289.993,484.437C289.993,475.687 285.915,467.906 279.555,462.874L279.555,439.186L384.164,290.844Z" style="fill:rgb(201,202,204);fill-rule:nonzero;"/>
        <rect x="157.086" y="0" width="197.844" height="88.047" style="fill:rgb(201,202,204);"/>
    </g>
</svg>
